X: 29667
T: Norwegian Gent, The
R: waltz
M: 3/4
K: Gmajor
D2|:B4d2|G4D2|BAB2d2|F4G2|c4e2|A4E2|cBc2e2|A4D2|
B4d2|G4D2|BAB2d2|F4G2|c3d ef|g2d2B2|c2A2d2|1 G4D2:|2 G3A Bd||
|:e4b2|b2a2g2|f3d Bd|f3f gf|e2A3B|cB cd ed|A6|AG AB cd|
e4b2|b2a2g2|1 f3d Bd|f3f gf|e2A3B|cB cd ed|A6|AG Bd gf:|
[2f3B df|g4gf|e2A3B|cB cd ed|(d6|d4)||

